icons/check-large.svg

<svg xmlns="http://www.w3.org/2000/svg" width="24" height="24" viewBox="0 0 24 24">
  <path d="M21.2718,4.3146353 C21.6503165,3.91246155 22.2831909,3.89328354 22.6853647,4.27180001 C23.056602,4.62119983 23.1014998,5.18733072 22.808497,5.58868088 L22.7282,5.6853647 L8.61055293,20.6853647 C8.24391908,21.0749132 7.64284893,21.1027381 7.24272418,20.7688394 L7.15415295,20.6853647 L1.27180001,14.4353647 C0.893283536,14.0331909 0.91246155,13.4003165 1.3146353,13.0218 C1.68587261,12.6724002 2.25368331,12.6618643 2.63655559,12.9786314 L2.72819999,13.0646353 L7.882,18.54 L21.2718,4.3146353 Z"/>
</svg>

<svg xmlns="http://www.w3.org/2000/svg" viewBox="0 0 24 24">
  <path d="M21.27 4.31a1 1 0 0 1 1.54 1.28l-.08.1-14.12 15a1 1 0 0 1-1.37.08l-.09-.08-5.88-6.25a1 1 0 0 1 1.37-1.46l.09.08 5.15 5.48 13.4-14.23z"/>
</svg>
